Origami/32x32/apps/soundwire.svg

<svg width="32" height="32" version="1" xmlns="http://www.w3.org/2000/svg">
 <rect transform="matrix(0,-1,-1,0,0,0)" x="-31" y="-30" width="28" height="28" rx="1.4" ry="1.4" style="opacity:.2"/>
 <rect transform="matrix(0,-1,-1,0,0,0)" x="-30" y="-30" width="28" height="28" rx="1.4" ry="1.4" style="fill:#5b3a2b"/>
 <path d="m16.619141 3c0.20074 0.047398 2.343073 0.5581605 4.560547 1.4472656 1.161473 0.4656976 2.300863 1.0344683 3.054687 1.59375 0.624805 0.4635588 0.732868 0.7558876 0.800781 0.9609375-0.0047 0.0023-0.003012 0.0015963-0.007812 0.0039063-2.35677 1.8606127-5.798304 1.8853488-8.080078 1.9746094-5.530375 0.2033591-11.394532-0.0039063-11.394532-0.0039063-0.7806165-0.029904-1.4345484-0.0973972-1.453125 0.6835937-0.018138 0.7588828 0.4644315 1.2748308 0.8105468 1.5312498 0.3461152 0.25642 0.6815152 0.398746 1.0566407 0.535156 0.7502508 0.27282 1.6632462 0.479051 2.7460937 0.677735 2.1656944 0.397368 5.2714084 0.731266 8.0722654 1.056641 2.135593 0.248093 2.427994 0.493769 4.228516 0.742187-1.835426 0.256886-2.170959 0.510831-4.351563 0.792969-2.850866 0.368861-5.998139 0.772022-8.193359 1.298828-1.0976112 0.263402-2.0248717 0.542355-2.8007812 0.949219-0.3879549 0.203433-0.7522653 0.435937-1.0761719 0.824218-0.3005601 0.360293-0.5132532 0.954711-0.4609375 1.533203 0.041274 0.674383 0.3853209 1.077375 0.6640625 1.335938 0.2988583 0.277223 0.614071 0.476949 0.9765625 0.677734 0.7249828 0.40157 1.6399125 0.78156 2.7246094 1.169922 0.7747095 0.277376 1.8844772 0.509295 2.7968752 0.78125-0.920347 0.330474-2.0385438 0.597941-2.8222659 0.939453-1.0988516 0.478832-2.0290564 0.950406-2.7636719 1.441407-0.3673078 0.245501-0.6884334 0.490975-0.9746093 0.802734-0.286176 0.311756-0.6091828 0.721698-0.6308594 1.40625-0.0219898 0.694448 0.1380539 1.303306 0.3808594 1.84375h3.6269531c-0.1220248-0.078129-0.2280511-0.129761-0.3574219-0.234375-0.4375364-0.353811-0.7059966-0.761137-0.7832031-1.257813 0.082997-0.0711 0.1357403-0.12538 0.2929688-0.230468 0.500325-0.334406 1.3241569-0.765639 2.328125-1.203125 1.7468892-0.761218 4.4423712-1.518596 6.8046872-2.164063 0.08475 0.01912 0.149576 0.047557 0.234375 0.066406 2.840344 0.631497 4.078037 0.908801 6.31836 1.042969 1.120161 0.06708 2.077137 0.063203 2.927734-0.113281 0.425299-0.08824 0.837947-0.210147 1.255859-0.505859 0.417913-0.295713 0.833743-0.697136 0.867188-1.326172 0.0011-0.0255 0.002153-0.050652 0.001953-0.076172-0.0021-1.152188-0.810544-1.912443-1.738281-2.375-0.927737-0.462556-1.964663-0.594833-3.126953-0.617188-2.324579-0.04471-3.583841 0.146857-6.451172 0.867188-0.127833 0.03212-0.223865 0.08416-0.351563 0.117187-2.403556-0.567081-5.130592-1.210939-6.8925779-1.841796-0.7099834-0.254202-1.162111-0.47599-1.6367187-0.697266 0.4070801-0.146059 0.7163014-0.286692 1.3203125-0.431641 1.9710201-0.473002 5.0734121-0.880575 7.8984371-1.246093s4.077881-0.694188 6.269532-1.048829c1.095826-0.17732 2.017452-0.354411 2.759765-0.580078 0.371157-0.112834 0.693432-0.225339 1.041016-0.439453 0.173792-0.107058 0.364041-0.240281 0.554687-0.484375 0.190645-0.244094 0.374915-0.654967 0.351563-1.09375-0.04543-0.853608-0.605231-1.237541-0.945313-1.441406-0.340081-0.203867-0.665011-0.318466-1.035156-0.431641-0.740291-0.226349-1.6563-0.40806-2.740234-0.583984-1.641437-0.266408-3.19174-0.504007-5.283203-0.748047 2.11081-0.120711 3.678004-0.233934 5.361328-0.546875 1.116166-0.207501 2.077057-0.4528436 2.892578-0.8476562 0.407761-0.1974064 0.788442-0.4311663 1.126953-0.796875 0.338478-0.3657087 0.624762-0.9313416 0.625-1.53125 6.02e-4 -1.5198204-1.012151-2.6042877-2.095703-3.4082032-0.388501-0.288239-0.812586-0.5457663-1.248047-0.7910156h-8.037109z" style="opacity:.2"/>
 <path d="m16.619749 2c0.20074 0.047398 2.342097 0.5573792 4.55957 1.4464843 1.161473 0.4656976 2.30184 1.034859 3.055664 1.5941407 0.624805 0.4635588 0.731892 0.7560829 0.799805 0.9611328-0.0047 0.0023-0.0021 0.00179-0.0069 0.0041-2.35677 1.8606127-5.797891 1.8859422-8.079665 1.9752027-5.530375 0.2033591-11.395114-0.00546-11.395114-0.00546-0.7806165-0.029904-1.4347199-0.095656-1.4532965 0.685335-0.018138 0.7588826 0.4632597 1.2748302 0.809375 1.5312495 0.3461152 0.25642 0.6817104 0.39816 1.0568359 0.534571 0.7502508 0.27282 1.6638327 0.479441 2.7466802 0.678125 2.1656942 0.397368 5.2719902 0.731461 8.0728472 1.056835 2.135593 0.248093 2.427776 0.493965 4.228298 0.742383-1.835426 0.256886-2.170741 0.509464-4.351345 0.791602-2.850866 0.368861-5.997939 0.77339-8.1931594 1.300196-1.0976112 0.263402-2.0254584 0.541963-2.8013679 0.948827-0.3879548 0.203433-0.7520699 0.434767-1.0759765 0.823048-0.3005601 0.360293-0.5130579 0.955492-0.4607422 1.533984 0.041274 0.674382 0.3843443 1.077179 0.6630859 1.335742 0.2988583 0.277223 0.6136804 0.47734 0.9761719 0.678125 0.7249828 0.40157 1.6401082 0.780583 2.7248051 1.168945 0.7747096 0.277376 1.8848681 0.510076 2.7972661 0.782031-0.920347 0.330474-2.0381132 0.597748-2.8218353 0.93926-1.0988516 0.478832-2.0298383 0.951382-2.7644537 1.442383-0.3673078 0.245501-0.6872616 0.490781-0.9734375 0.80254-0.286176 0.311756-0.6099641 0.720916-0.6316407 1.405468-0.0368962 1.165197 0.4062613 2.117826 0.969336 2.84375h4.4406255c-0.1610147-0.279533-0.4135852-0.494918-0.7150395-0.609766 0 0-0.5260584-0.205546-1.0445309-0.624804-0.4375364-0.353811-0.7061929-0.761137-0.7833994-1.257813 0.082997-0.0711 0.1367177-0.125967 0.2939461-0.231055 0.500325-0.334406 1.3243524-0.765639 2.3283204-1.203125 1.746889-0.761218 4.441782-1.517423 6.804098-2.16289 0.08475 0.01912 0.14899 0.04677 0.233789 0.06562 2.840344 0.631497 4.078405 0.910012 6.318728 1.04418 1.120161 0.06708 2.077918 0.06164 2.928515-0.114844 0.425299-0.08824 0.837166-0.210147 1.255078-0.505859 0.417913-0.295713 0.834719-0.696785 0.868164-1.325821 0.0011-0.0255 0.0016-0.05104 0.0014-0.07656-0.0021-1.152188-0.809958-1.911725-1.737695-2.374282-0.927737-0.462556-1.965835-0.595613-3.128125-0.617968-2.324579-0.04471-3.582647 0.14731-6.449978 0.867641-0.127833 0.03212-0.225036 0.08455-0.352734 0.117577-2.403556-0.567081-5.129612-1.21074-6.8915979-1.841598-0.7099834-0.254202-1.1632831-0.47599-1.6378908-0.697266 0.4070801-0.146059 0.7166922-0.287082 1.3207033-0.432031 1.9710204-0.473002 5.0741904-0.87999 7.8992154-1.245508 2.825025-0.365517 4.07649-0.693992 6.268141-1.048633 1.095826-0.17732 2.018039-0.355387 2.760352-0.581054 0.371157-0.112834 0.694213-0.224753 1.041797-0.438867 0.173792-0.107058 0.363065-0.239891 0.553711-0.483985 0.190645-0.244094 0.376086-0.656334 0.352734-1.095117-0.04543-0.853608-0.606012-1.23715-0.946094-1.441015-0.340081-0.203867-0.664815-0.318857-1.03496-0.432032-0.740291-0.226349-1.65591-0.406498-2.739844-0.582422-1.641437-0.266408-3.191763-0.505179-5.283226-0.7492188 2.11081-0.1207115 3.677831-0.2325673 5.361155-0.5455079 1.116166-0.2075017 2.076081-0.4542104 2.891602-0.849023 0.407761-0.1974063 0.789419-0.4313617 1.12793-0.7970704 0.338478-0.3657087 0.624534-0.9299745 0.624772-1.5298829 6.02e-4 -1.5198203-1.012347-2.6044829-2.095899-3.4083984-0.388501-0.288239-0.812781-0.5463523-1.248242-0.7916016z" style="fill:#f19037"/>
 <path d="M 3.4003906 2 C 2.6247906 2 2 2.6247906 2 3.4003906 L 2 4.4003906 C 2 3.6247906 2.6247906 3 3.4003906 3 L 28.599609 3 C 29.375209 3 30 3.6247906 30 4.4003906 L 30 3.4003906 C 30 2.6247906 29.375209 2 28.599609 2 L 3.4003906 2 z" style="fill:#ffffff;opacity:.1"/>
</svg>

<svg xmlns="http://www.w3.org/2000/svg" width="32" height="32" version="1">
 <rect style="opacity:0.2" width="28" height="28" x="-31" y="-30" rx="1.4" ry="1.4" transform="matrix(0,-1,-1,0,0,0)"/>
 <rect style="fill:#5b3a2b" width="28" height="28" x="-30" y="-30" rx="1.4" ry="1.4" transform="matrix(0,-1,-1,0,0,0)"/>
 <path style="opacity:0.2" d="M 16.619141 3 C 16.819881 3.047398 18.962214 3.5581605 21.179688 4.4472656 C 22.341161 4.9129632 23.480551 5.4817339 24.234375 6.0410156 C 24.85918 6.5045744 24.967243 6.7969032 25.035156 7.0019531 C 25.030456 7.0042531 25.032144 7.0035494 25.027344 7.0058594 C 22.670574 8.8664721 19.22904 8.8912082 16.947266 8.9804688 C 11.416891 9.1838279 5.5527344 8.9765625 5.5527344 8.9765625 C 4.7721179 8.9466585 4.118186 8.8791653 4.0996094 9.6601562 C 4.0814714 10.419039 4.5640409 10.934987 4.9101562 11.191406 C 5.2562714 11.447826 5.5916714 11.590152 5.9667969 11.726562 C 6.7170477 11.999382 7.6300431 12.205613 8.7128906 12.404297 C 10.878585 12.801665 13.984299 13.135563 16.785156 13.460938 C 18.920749 13.709031 19.21315 13.954707 21.013672 14.203125 C 19.178246 14.460011 18.842713 14.713956 16.662109 14.996094 C 13.811243 15.364955 10.66397 15.768116 8.46875 16.294922 C 7.3711388 16.558324 6.4438783 16.837277 5.6679688 17.244141 C 5.2800139 17.447574 4.9157035 17.680078 4.5917969 18.068359 C 4.2912368 18.428652 4.0785437 19.02307 4.1308594 19.601562 C 4.1721334 20.275945 4.5161803 20.678937 4.7949219 20.9375 C 5.0937802 21.214723 5.4089929 21.414449 5.7714844 21.615234 C 6.4964672 22.016804 7.4113969 22.396794 8.4960938 22.785156 C 9.2708033 23.062532 10.380571 23.294451 11.292969 23.566406 C 10.372622 23.89688 9.2544252 24.164347 8.4707031 24.505859 C 7.3718515 24.984691 6.4416467 25.456265 5.7070312 25.947266 C 5.3397234 26.192767 5.0185978 26.438241 4.7324219 26.75 C 4.4462459 27.061756 4.1232391 27.471698 4.1015625 28.15625 C 4.0795727 28.850698 4.2396164 29.459556 4.4824219 30 L 8.109375 30 C 7.9873502 29.921871 7.8813239 29.870239 7.7519531 29.765625 C 7.3144167 29.411814 7.0459565 29.004488 6.96875 28.507812 C 7.051747 28.436712 7.1044903 28.382432 7.2617188 28.277344 C 7.7620438 27.942938 8.5858757 27.511705 9.5898438 27.074219 C 11.336733 26.313001 14.032215 25.555623 16.394531 24.910156 C 16.479281 24.929276 16.544107 24.957713 16.628906 24.976562 C 19.46925 25.608059 20.706943 25.885363 22.947266 26.019531 C 24.067427 26.086611 25.024403 26.082734 25.875 25.90625 C 26.300299 25.81801 26.712947 25.696103 27.130859 25.400391 C 27.548772 25.104678 27.964602 24.703255 27.998047 24.074219 C 27.999147 24.048719 28.0002 24.023567 28 23.998047 C 27.9979 22.845859 27.189456 22.085604 26.261719 21.623047 C 25.333982 21.160491 24.297056 21.028214 23.134766 21.005859 C 20.810187 20.961149 19.550925 21.152716 16.683594 21.873047 C 16.555761 21.905167 16.459729 21.957207 16.332031 21.990234 C 13.928475 21.423153 11.201439 20.779295 9.4394531 20.148438 C 8.7294697 19.894236 8.2773421 19.672448 7.8027344 19.451172 C 8.2098145 19.305113 8.5190358 19.16448 9.1230469 19.019531 C 11.094067 18.546529 14.196459 18.138956 17.021484 17.773438 C 19.846509 17.40792 21.099365 17.07925 23.291016 16.724609 C 24.386842 16.547289 25.308468 16.370198 26.050781 16.144531 C 26.421938 16.031697 26.744213 15.919192 27.091797 15.705078 C 27.265589 15.59802 27.455838 15.464797 27.646484 15.220703 C 27.837129 14.976609 28.021399 14.565736 27.998047 14.126953 C 27.952617 13.273345 27.392816 12.889412 27.052734 12.685547 C 26.712653 12.48168 26.387723 12.367081 26.017578 12.253906 C 25.277287 12.027557 24.361278 11.845846 23.277344 11.669922 C 21.635907 11.403514 20.085604 11.165915 17.994141 10.921875 C 20.104951 10.801164 21.672145 10.687941 23.355469 10.375 C 24.471635 10.167499 25.432526 9.9221564 26.248047 9.5273438 C 26.655808 9.3299374 27.036489 9.0961775 27.375 8.7304688 C 27.713478 8.3647601 27.999762 7.7991272 28 7.1992188 C 28.000602 5.6793984 26.987849 4.5949311 25.904297 3.7910156 C 25.515796 3.5027766 25.091711 3.2452493 24.65625 3 L 16.619141 3 z"/>
 <path style="fill:#f19037" d="m 16.619749,2 c 0.20074,0.047398 2.342097,0.5573792 4.55957,1.4464843 1.161473,0.4656976 2.30184,1.034859 3.055664,1.5941407 0.624805,0.4635588 0.731892,0.7560829 0.799805,0.9611328 -0.0047,0.0023 -0.0021,0.00179 -0.0069,0.0041 C 22.671118,7.8664705 19.229997,7.8918 16.948223,7.9810605 11.417848,8.1844196 5.5531092,7.9756005 5.5531092,7.9756005 4.7724927,7.9456965 4.1183893,7.8799445 4.0998127,8.6609355 c -0.018138,0.7588826 0.4632597,1.2748302 0.809375,1.5312495 0.3461152,0.25642 0.6817104,0.39816 1.0568359,0.534571 0.7502508,0.27282 1.6638327,0.479441 2.7466802,0.678125 2.1656942,0.397368 5.2719902,0.731461 8.0728472,1.056835 2.135593,0.248093 2.427776,0.493965 4.228298,0.742383 -1.835426,0.256886 -2.170741,0.509464 -4.351345,0.791602 -2.850866,0.368861 -5.997939,0.77339 -8.1931594,1.300196 -1.0976112,0.263402 -2.0254584,0.541963 -2.8013679,0.948827 -0.3879548,0.203433 -0.7520699,0.434767 -1.0759765,0.823048 -0.3005601,0.360293 -0.5130579,0.955492 -0.4607422,1.533984 0.041274,0.674382 0.3843443,1.077179 0.6630859,1.335742 0.2988583,0.277223 0.6136804,0.47734 0.9761719,0.678125 0.7249828,0.40157 1.6401082,0.780583 2.7248051,1.168945 0.7747096,0.277376 1.8848681,0.510076 2.7972661,0.782031 -0.920347,0.330474 -2.0381132,0.597748 -2.8218353,0.93926 C 7.3719001,23.984691 6.4409134,24.457241 5.706298,24.948242 5.3389902,25.193743 5.0190364,25.439023 4.7328605,25.750782 4.4466845,26.062538 4.1228964,26.471698 4.1012198,27.15625 4.0643236,28.321447 4.5074811,29.274076 5.0705558,30 H 9.5111813 C 9.3501666,29.720467 9.0975961,29.505082 8.7961418,29.390234 c 0,0 -0.5260584,-0.205546 -1.0445309,-0.624804 -0.4375364,-0.353811 -0.7061929,-0.761137 -0.7833994,-1.257813 0.082997,-0.0711 0.1367177,-0.125967 0.2939461,-0.231055 0.500325,-0.334406 1.3243524,-0.765639 2.3283204,-1.203125 1.746889,-0.761218 4.441782,-1.517423 6.804098,-2.16289 0.08475,0.01912 0.14899,0.04677 0.233789,0.06562 2.840344,0.631497 4.078405,0.910012 6.318728,1.04418 1.120161,0.06708 2.077918,0.06164 2.928515,-0.114844 0.425299,-0.08824 0.837166,-0.210147 1.255078,-0.505859 0.417913,-0.295713 0.834719,-0.696785 0.868164,-1.325821 0.0011,-0.0255 0.0016,-0.05104 0.0014,-0.07656 -0.0021,-1.152188 -0.809958,-1.911725 -1.737695,-2.374282 -0.927737,-0.462556 -1.965835,-0.595613 -3.128125,-0.617968 -2.324579,-0.04471 -3.582647,0.14731 -6.449978,0.867641 -0.127833,0.03212 -0.225036,0.08455 -0.352734,0.117577 -2.403556,-0.567081 -5.129612,-1.21074 -6.8915979,-1.841598 -0.7099834,-0.254202 -1.1632831,-0.47599 -1.6378908,-0.697266 0.4070801,-0.146059 0.7166922,-0.287082 1.3207033,-0.432031 1.9710204,-0.473002 5.0741904,-0.87999 7.8992154,-1.245508 2.825025,-0.365517 4.07649,-0.693992 6.268141,-1.048633 1.095826,-0.17732 2.018039,-0.355387 2.760352,-0.581054 0.371157,-0.112834 0.694213,-0.224753 1.041797,-0.438867 0.173792,-0.107058 0.363065,-0.239891 0.553711,-0.483985 0.190645,-0.244094 0.376086,-0.656334 0.352734,-1.095117 -0.04543,-0.853608 -0.606012,-1.23715 -0.946094,-1.441015 C 26.712708,11.48129 26.387974,11.3663 26.017829,11.253125 25.277538,11.026776 24.361919,10.846627 23.277985,10.670703 21.636548,10.404295 20.086222,10.165524 17.994759,9.9214842 20.105569,9.8007727 21.67259,9.6889169 23.355914,9.3759763 24.47208,9.1684746 25.431995,8.9217659 26.247516,8.5269533 26.655277,8.329547 27.036935,8.0955916 27.375446,7.7298829 27.713924,7.3641742 27.99998,6.7999084 28.000218,6.2 28.00082,4.6801797 26.987871,3.5955171 25.904319,2.7916016 25.515818,2.5033626 25.091538,2.2452493 24.656077,2 Z"/>
 <path style="fill:#ffffff;opacity:0.1" d="M 3.4003906 2 C 2.6247906 2 2 2.6247906 2 3.4003906 L 2 4.4003906 C 2 3.6247906 2.6247906 3 3.4003906 3 L 28.599609 3 C 29.375209 3 30 3.6247906 30 4.4003906 L 30 3.4003906 C 30 2.6247906 29.375209 2 28.599609 2 L 3.4003906 2 z"/>
</svg>
